modules/hawcons-stroke/icons/icon-73-documents.svg

<?xml version="1.0" encoding="UTF-8" standalone="no"?>
<svg width="32px" height="32px" viewBox="0 0 32 32" version="1.1" xmlns="http://www.w3.org/2000/svg" xmlns:xlink="http://www.w3.org/1999/xlink" xmlns:sketch="http://www.bohemiancoding.com/sketch/ns">
    <!-- Generator: Sketch 3.0.3 (7891) - http://www.bohemiancoding.com/sketch -->
    <title>icon 73 documents</title>
    <desc>Created with Sketch.</desc>
    <defs></defs>
    <g id="Page-1" stroke="none" stroke-width="1" fill="none" fill-rule="evenodd" sketch:type="MSPage">
        <g id="icon-73-documents" sketch:type="MSArtboardGroup" fill="#929292">
            <path d="M23,12.5 L23,26 L27.0000398,26 C27.5523026,26 28,25.5550537 28,25.0066023 L28,8 L23.9979131,8 C22.8944962,8 22,7.11344516 22,5.99408095 L22,1 L11.9955775,1 C11.4457352,1 11,1.45526288 11,1.99545703 L11,5 L11,5 L16.5,5 L17,5 L23,12 L23,12.5 L23,12.5 L23,12.5 Z M10,5 L10,2.00732994 C10,0.898338318 10.8966663,0 12.0027601,0 L22.5,0 L22.5,0 L23,0 L29,7 L29,7.5 L29,25.0092049 C29,26.1017876 28.1057238,27 27.0025781,27 L23,27 L23,30.0092049 C23,31.1017876 22.1057238,32 21.0025781,32 L5.99742191,32 C4.89092539,32 4,31.1012878 4,29.9926701 L4,7.00732994 C4,5.89833832 4.89666625,5 6.00276013,5 L10,5 L10,5 L10,5 Z M23,1.5 L23,5.99121523 C23,6.54835167 23.4506511,7 23.9967388,7 L27.6999512,7 L23,1.5 L23,1.5 Z M16,6 L5.9955775,6 C5.44573523,6 5,6.45526288 5,6.99545703 L5,30.004543 C5,30.5543187 5.45470893,31 5.9999602,31 L21.0000398,31 C21.5523026,31 22,30.5550537 22,30.0066023 L22,13 L17.9979131,13 C16.8944962,13 16,12.1134452 16,10.9940809 L16,6 L16,6 Z M17,6.5 L17,10.9912152 C17,11.5483517 17.4506511,12 17.9967388,12 L21.6999512,12 L17,6.5 L17,6.5 Z" id="documents" sketch:type="MSShapeGroup"></path>
        </g>
    </g>
</svg>

<svg width="32" height="32" xmlns="http://www.w3.org/2000/svg"><path d="M23 12.5V26h4c.552 0 1-.445 1-.993V8h-4.002A1.995 1.995 0 0 1 22 5.994V1H11.996c-.55 0-.996.455-.996.995V5h6l6 7v.5zM10 5V2.007C10 .898 10.897 0 12.003 0H23l6 7v18.01c0 1.092-.894 1.99-1.997 1.99H23v3.01c0 1.092-.894 1.99-1.997 1.99H5.997A2 2 0 0 1 4 29.993V7.007C4 5.898 4.897 5 6.003 5H10zm13-3.5v4.491c0 .557.45 1.009.997 1.009H27.7L23 1.5zM16 6H5.996C5.446 6 5 6.455 5 6.995v23.01c0 .55.455.995 1 .995h15c.552 0 1-.445 1-.993V13h-4.002A1.995 1.995 0 0 1 16 10.994V6zm1 .5v4.491c0 .557.45 1.009.997 1.009H21.7L17 6.5z" fill="#929292" fill-rule="evenodd"/></svg>
